fa/building-wheat.svg

<svg xmlns="http://www.w3.org/2000/svg" viewBox="0 0 640 512" height="1em" width="1em">
  <path d="M0 48C0 21.49 21.49 0 48 0h288c26.5 0 48 21.49 48 48v416c0 26.5-21.5 48-48 48h-96v-80c0-26.5-21.5-48-48-48s-48 21.5-48 48v80H48c-26.51 0-48-21.5-48-48V48zm80 176c-8.84 0-16 7.2-16 16v32c0 8.8 7.16 16 16 16h32c8.8 0 16-7.2 16-16v-32c0-8.8-7.2-16-16-16H80zm80 48c0 8.8 7.2 16 16 16h32c8.8 0 16-7.2 16-16v-32c0-8.8-7.2-16-16-16h-32c-8.8 0-16 7.2-16 16v32zm112-48c-8.8 0-16 7.2-16 16v32c0 8.8 7.2 16 16 16h32c8.8 0 16-7.2 16-16v-32c0-8.8-7.2-16-16-16h-32zM64 144c0 8.8 7.16 16 16 16h32c8.8 0 16-7.2 16-16v-32c0-8.8-7.2-16-16-16H80c-8.84 0-16 7.2-16 16v32zm112-48c-8.8 0-16 7.2-16 16v32c0 8.8 7.2 16 16 16h32c8.8 0 16-7.2 16-16v-32c0-8.8-7.2-16-16-16h-32zm80 48c0 8.8 7.2 16 16 16h32c8.8 0 16-7.2 16-16v-32c0-8.8-7.2-16-16-16h-32c-8.8 0-16 7.2-16 16v32zm384 48v16c0 44.2-35.8 80-80 80h-16v-16c0-44.2 35.8-80 80-80h16zm-80 208h-16v-16c0-44.2 35.8-80 80-80h16v16c0 44.2-35.8 80-80 80zm0 112h-16v-16c0-44.2 35.8-80 80-80h16v16c0 44.2-35.8 80-80 80zm-48-16v16h-16c-44.2 0-80-35.8-80-80v-16h16c44.2 0 80 35.8 80 80zm-16-96c-44.2 0-80-35.8-80-80v-16h16c44.2 0 80 35.8 80 80v16h-16zm16-128v16h-16c-44.2 0-80-35.8-80-80v-16h16c44.2 0 80 35.8 80 80zm16-240c13.3 0 24 10.75 24 24v104c0 13.3-10.7 24-24 24s-24-10.7-24-24V56c0-13.25 10.7-24 24-24zm96 96c0 13.3-10.7 24-24 24s-24-10.7-24-24V96c0-13.25 10.7-24 24-24s24 10.75 24 24v32zM456 72c13.3 0 24 10.75 24 24v32c0 13.3-10.7 24-24 24s-24-10.7-24-24V96c0-13.25 10.7-24 24-24z"/>
</svg>

<svg xmlns="http://www.w3.org/2000/svg" viewBox="0 0 640 512" height="1em" width="1em">
  <path d="M0 48C0 21.49 21.49 0 48 0H336C362.5 0 384 21.49 384 48V464C384 490.5 362.5 512 336 512H240V432C240 405.5 218.5 384 192 384C165.5 384 144 405.5 144 432V512H48C21.49 512 0 490.5 0 464V48zM80 224C71.16 224 64 231.2 64 240V272C64 280.8 71.16 288 80 288H112C120.8 288 128 280.8 128 272V240C128 231.2 120.8 224 112 224H80zM160 272C160 280.8 167.2 288 176 288H208C216.8 288 224 280.8 224 272V240C224 231.2 216.8 224 208 224H176C167.2 224 160 231.2 160 240V272zM272 224C263.2 224 256 231.2 256 240V272C256 280.8 263.2 288 272 288H304C312.8 288 320 280.8 320 272V240C320 231.2 312.8 224 304 224H272zM64 144C64 152.8 71.16 160 80 160H112C120.8 160 128 152.8 128 144V112C128 103.2 120.8 96 112 96H80C71.16 96 64 103.2 64 112V144zM176 96C167.2 96 160 103.2 160 112V144C160 152.8 167.2 160 176 160H208C216.8 160 224 152.8 224 144V112C224 103.2 216.8 96 208 96H176zM256 144C256 152.8 263.2 160 272 160H304C312.8 160 320 152.8 320 144V112C320 103.2 312.8 96 304 96H272C263.2 96 256 103.2 256 112V144zM640 192V208C640 252.2 604.2 288 560 288H544V272C544 227.8 579.8 192 624 192H640zM560 400H544V384C544 339.8 579.8 304 624 304H640V320C640 364.2 604.2 400 560 400zM560 512H544V496C544 451.8 579.8 416 624 416H640V432C640 476.2 604.2 512 560 512zM512 496V512H496C451.8 512 416 476.2 416 432V416H432C476.2 416 512 451.8 512 496zM496 400C451.8 400 416 364.2 416 320V304H432C476.2 304 512 339.8 512 384V400H496zM512 272V288H496C451.8 288 416 252.2 416 208V192H432C476.2 192 512 227.8 512 272zM528 32C541.3 32 552 42.75 552 56V160C552 173.3 541.3 184 528 184C514.7 184 504 173.3 504 160V56C504 42.75 514.7 32 528 32zM624 128C624 141.3 613.3 152 600 152C586.7 152 576 141.3 576 128V96C576 82.75 586.7 72 600 72C613.3 72 624 82.75 624 96V128zM456 72C469.3 72 480 82.75 480 96V128C480 141.3 469.3 152 456 152C442.7 152 432 141.3 432 128V96C432 82.75 442.7 72 456 72z"/>
</svg>
